X:1
T:Litany of the Passion, 77.76
T:John Bacchus Dykes (1823-1876)
T:Litany of the Passion, 77.76
T:Public Domain
C:John Bacchus Dykes (1823-1876)
Z:Public Domain
%%score ( 1 2 ) 3
L:1/8
M:4/4
K:D
V:1 treble 
V:2 treble 
V:3 bass 
V:1
 [DF]2 [DF]2 [DF]2 [DF]2 | [DA]3 [CE] [CE]4 | [=CE]2 [CE]2 [CE]2 [CE]2 | [=CG]3 [B,D] [B,D]4 | %4
 [A,D]2 [B,D]2 [=CA]2 [CA]2 | [DA]2 [DG]2 A2 B2 | [A,D]2 C2 [CF]3 [CE] | [CE]4 D4 |] %8
V:2
 x8 | x8 | x8 | x8 | x8 | x4 D4 | x8 | x4 D4 |] %8
V:3
 [D,A,]2 [D,A,]2 [B,,B,]2 [B,,B,]2 | [A,,F,]3 [A,,A,] [A,,A,]4 | %2
 [=C,G,]2 [C,G,]2 [A,,A,]2 [A,,A,]2 | [G,,E,]3 [G,,G,] [G,,G,]4 | %4
 [F,,D,]2 [F,,D,]2 [F,,D,]2 [D,F,]2 | [=C,F,]2 [B,,G,]2 [A,,F,]2 [G,,E,]2 | %6
 [A,,F,]2 [A,,D,]2 [A,,A,]3 [A,,G,] | [A,,G,]4 [D,F,]4 |] %8

